icons/editor/strikethrough.svg

<svg width="32" height="32" viewBox="0 0 32 32" fill="none" xmlns="http://www.w3.org/2000/svg">
<path fill-rule="evenodd" clip-rule="evenodd" d="M16.779 5.71056C15.0864 5.58229 13.5554 5.97842 12.3991 6.8414C11.2329 7.71178 10.5116 9.01285 10.3957 10.542C10.3379 11.3044 10.4413 11.9872 10.7259 12.6054C11.0079 13.2177 11.4364 13.6988 11.9245 14.1064C12.3087 14.4274 12.7498 14.7189 13.2143 15H4V17H16.6791C16.8006 17.0671 16.9199 17.1327 17.0364 17.1968L17.0366 17.1969C17.2312 17.3039 17.418 17.4065 17.594 17.505C18.2196 17.8553 18.7262 18.162 19.1288 18.4862C19.5235 18.804 19.7841 19.1122 19.9442 19.4492C20.1014 19.7802 20.1935 20.2056 20.1478 20.8083C20.0691 21.8471 19.6647 22.7614 18.9902 23.3844C18.3298 23.9944 17.3246 24.4052 15.8721 24.2951C14.3763 24.1818 13.5044 23.7236 12.9108 23.1891C12.3011 22.6402 11.9199 21.9619 11.4792 21.1776L11.4332 21.0959L9.69003 22.0763L9.77121 22.2212C10.1825 22.9559 10.7105 23.8992 11.5726 24.6754C12.5296 25.5371 13.8333 26.1464 15.721 26.2894C17.6518 26.4358 19.2264 25.8888 20.3472 24.8536C21.4538 23.8315 22.0319 22.4134 22.1421 20.9594C22.2098 20.0664 22.0799 19.2841 21.7507 18.591C21.4417 17.9405 20.9855 17.4288 20.4706 17H28V15H17.1992C16.9871 14.8802 16.7719 14.756 16.552 14.6244C16.1129 14.3617 15.6715 14.1101 15.2704 13.8815L15.2704 13.8815L15.2703 13.8814C15.0199 13.7387 14.7852 13.6049 14.5765 13.483C13.999 13.1454 13.5514 12.8595 13.2066 12.5715C12.8694 12.2898 12.6644 12.0334 12.5427 11.769C12.4236 11.5104 12.3533 11.1772 12.39 10.6931C12.463 9.72942 12.9013 8.96221 13.5954 8.4442C14.2993 7.91879 15.3291 7.60642 16.6279 7.70484C17.9629 7.80601 18.7254 8.14937 19.3008 8.62572C19.9245 9.14205 20.404 9.86797 21.0953 10.9517L22.7814 9.87604L22.7613 9.84446L22.7613 9.84444C22.115 8.8313 21.4766 7.83057 20.5762 7.08515C19.6181 6.292 18.4355 5.83609 16.779 5.71056Z" fill="black"/>
</svg>

<svg width="32" height="32" viewBox="0 0 32 32" xmlns="http://www.w3.org/2000/svg">
    <path fill-rule="evenodd" d="M16.779 5.71c-1.693-.128-3.224.268-4.38 1.131-1.166.87-1.887 2.172-2.003 3.701-.058.762.045 1.445.33 2.063.282.613.71 1.094 1.198 1.501.385.321.826.613 1.29.894H4v2h12.68l.356.197.558.308c.626.35 1.132.657 1.535.981.394.318.655.626.815.963.157.331.25.757.204 1.36-.079 1.038-.483 1.952-1.158 2.575-.66.61-1.665 1.021-3.118.911-1.496-.113-2.368-.571-2.961-1.106-.61-.549-.991-1.227-1.432-2.011l-.046-.082-1.743.98.081.145c.411.735.94 1.678 1.802 2.454.957.862 2.26 1.471 4.148 1.614 1.93.147 3.505-.4 4.626-1.435 1.107-1.023 1.685-2.44 1.795-3.895.068-.893-.062-1.675-.391-2.368-.31-.65-.766-1.162-1.28-1.591H28v-2H17.2c-.213-.12-.428-.244-.648-.376-.44-.262-.88-.514-1.282-.742-.25-.143-.485-.277-.694-.399-.577-.338-1.025-.623-1.37-.912-.337-.281-.542-.538-.663-.802-.12-.259-.19-.592-.153-1.076.073-.964.511-1.73 1.205-2.249.704-.525 1.734-.838 3.033-.74 1.335.102 2.097.445 2.673.922.623.516 1.103 1.242 1.794 2.326l1.686-1.076-.02-.032c-.646-1.013-1.284-2.013-2.185-2.759-.958-.793-2.14-1.249-3.797-1.374z"/>
</svg>
